apps/sim/public/brandbook/workmark/black.svg

<svg fill="none" height="386" viewBox="0 0 800 386" width="800" xmlns="http://www.w3.org/2000/svg"><g fill="#1c1c1c"><path d="m0 293.75h53.4128c0 14.748 5.3413 26.506 16.0239 35.275 10.6826 8.37 25.1238 12.555 43.3233 12.555 19.783 0 35.016-3.786 45.698-11.36 10.683-7.971 16.024-18.534 16.024-31.687 0-9.566-2.967-17.538-8.902-23.915-5.539-6.378-15.826-11.559-30.861-15.545l-51.0389-11.958c-25.7173-6.377-44.9063-16.142-57.5672-29.296-12.2651-13.153-18.39771-30.491-18.39771-52.015 0-17.936 4.55001-33.481 13.64991-46.635 9.4957-13.153 22.3543-23.3169 38.576-30.4914 16.6173-7.1745 35.6086-10.7619 56.9739-10.7619 21.365 0 39.763 3.7866 55.193 11.3598 15.826 7.5731 28.091 18.1355 36.796 31.6875 9.1 13.552 13.847 29.695 14.243 48.428h-53.413c-.395-15.146-5.341-26.904-14.837-35.275-9.495-8.37-22.75-12.555-39.763-12.555-17.4083 0-30.8604 3.786-40.356 11.36-9.4956 7.573-14.2434 17.936-14.2434 31.089 0 19.531 14.2434 32.884 42.7304 40.058l51.039 12.556c24.53 5.58 42.928 14.747 55.193 27.502 12.265 12.356 18.398 29.296 18.398 50.82 0 18.335-4.946 34.477-14.837 48.428-9.891 13.552-23.541 24.114-40.95 31.687-17.013 7.175-37.191 10.762-60.534 10.762-34.0265 0-61.1285-8.37-81.3067-25.111-20.1782-16.74-30.2673-39.061-30.2673-66.962z"/><path d="m267.175 385.826v-292.3631c22.244 8.1331 32.053 8.1331 55.787 0v292.3631zm27.3-311.6891c-9.891 0-18.596-3.5872-26.113-10.7618-7.122-7.5731-10.683-16.342-10.683-26.3067 0-10.3632 3.561-19.132 10.683-26.3066 7.517-7.17453 16.222-10.7618 26.113-10.7618 10.287 0 18.991 3.58727 26.113 10.7618 7.122 7.1746 10.682 15.9434 10.682 26.3066 0 9.9647-3.56 18.7336-10.682 26.3067-7.122 7.1746-15.826 10.7618-26.113 10.7618z"/><path d="m421.362 385.823h-55.786v-292.3624h49.852v49.3294c5.934-16.342 17.408-30.197 33.234-40.959 16.222-11.1605 35.807-16.7407 58.754-16.7407 25.718 0 47.083 6.9752 64.096 20.9257 17.013 13.951 28.091 32.485 33.234 55.603h-10.089c3.957-23.118 14.837-41.652 32.642-55.603 17.804-13.9505 39.762-20.9257 65.875-20.9257 33.235 0 59.348 9.7653 78.339 29.2957 18.991 19.531 28.487 46.236 28.487 80.116v191.321h-54.6v-177.57c0-23.118-5.934-40.855-17.804-53.211-11.474-12.755-27.102-19.132-46.885-19.132-13.847 0-26.113 3.189-36.795 9.566-10.287 5.979-18.398 14.748-24.333 26.307-5.934 11.559-8.902 25.111-8.902 40.655v173.385h-55.193v-178.168c0-23.118-5.737-40.655-17.211-52.613-11.474-12.356-27.102-18.534-46.885-18.534-13.847 0-26.112 3.189-36.795 9.566-10.287 5.979-18.398 14.748-24.333 26.307-5.934 11.16-8.902 24.513-8.902 40.057z"/></g></svg>

<svg width="800" height="386" viewBox="0 0 800 386" fill="none" xmlns="http://www.w3.org/2000/svg">
<path d="M0 293.75H53.4128C53.4128 308.498 58.7541 320.256 69.4367 329.025C80.1193 337.395 94.5605 341.58 112.76 341.58C132.543 341.58 147.776 337.794 158.458 330.22C169.141 322.249 174.482 311.686 174.482 298.533C174.482 288.967 171.515 280.995 165.58 274.618C160.041 268.24 149.754 263.059 134.719 259.073L83.6801 247.115C57.9628 240.738 38.7738 230.973 26.1129 217.819C13.8478 204.666 7.71519 187.328 7.71519 165.804C7.71519 147.868 12.2652 132.323 21.3651 119.169C30.8608 106.016 43.7194 95.8521 59.9411 88.6776C76.5584 81.5031 95.5497 77.9157 116.915 77.9157C138.28 77.9157 156.678 81.7023 172.108 89.2755C187.934 96.8486 200.199 107.411 208.904 120.963C218.004 134.515 222.751 150.658 223.147 169.391H169.734C169.339 154.245 164.393 142.487 154.897 134.116C145.402 125.746 132.147 121.561 115.134 121.561C97.7257 121.561 84.2736 125.347 74.778 132.921C65.2824 140.494 60.5346 150.857 60.5346 164.01C60.5346 183.541 74.778 196.894 103.265 204.068L154.304 216.624C178.834 222.204 197.232 231.371 209.497 244.126C221.762 256.482 227.895 273.422 227.895 294.946C227.895 313.281 222.949 329.423 213.058 343.374C203.167 356.926 189.517 367.488 172.108 375.061C155.095 382.236 134.917 385.823 111.574 385.823C77.5475 385.823 50.4455 377.453 30.2673 360.712C10.0891 343.972 0 321.651 0 293.75Z" fill="#1C1C1C"/>
<path d="M267.175 385.826V93.4629C289.419 101.596 299.228 101.596 322.962 93.4629V385.826H267.175ZM294.475 74.1369C284.584 74.1369 275.879 70.5497 268.362 63.3751C261.24 55.802 257.679 47.0331 257.679 37.0684C257.679 26.7052 261.24 17.9364 268.362 10.7618C275.879 3.58727 284.584 0 294.475 0C304.762 0 313.466 3.58727 320.588 10.7618C327.71 17.9364 331.27 26.7052 331.27 37.0684C331.27 47.0331 327.71 55.802 320.588 63.3751C313.466 70.5497 304.762 74.1369 294.475 74.1369Z" fill="#1C1C1C"/>
<path d="M421.362 385.823H365.576V93.4606H415.428V142.79C421.362 126.448 432.836 112.593 448.662 101.831C464.884 90.6705 484.469 85.0903 507.416 85.0903C533.134 85.0903 554.499 92.0655 571.512 106.016C588.525 119.967 599.603 138.501 604.746 161.619H594.657C598.614 138.501 609.494 119.967 627.299 106.016C645.103 92.0655 667.061 85.0903 693.174 85.0903C726.409 85.0903 752.522 94.8556 771.513 114.386C790.504 133.917 800 160.622 800 194.502V385.823H745.4V208.253C745.4 185.135 739.466 167.398 727.596 155.042C716.122 142.287 700.494 135.91 680.711 135.91C666.864 135.91 654.598 139.099 643.916 145.476C633.629 151.455 625.518 160.224 619.583 171.783C613.649 183.342 610.681 196.894 610.681 212.438V385.823H555.488V207.655C555.488 184.537 549.751 167 538.277 155.042C526.803 142.686 511.175 136.508 491.392 136.508C477.545 136.508 465.28 139.697 454.597 146.074C444.31 152.053 436.199 160.822 430.264 172.381C424.33 183.541 421.362 196.894 421.362 212.438V385.823Z" fill="#1C1C1C"/>
</svg>
